picto/cableway-right.svg

<svg class="color-immutable" width="24" height="24" viewBox="0 0 24 24" fill="none" xmlns="http://www.w3.org/2000/svg"><g clip-path="url(#a)"><path d="M0 22.5v-21C0 .675.675 0 1.5 0h21c.825 0 1.5.675 1.5 1.5v21c0 .825-.675 1.5-1.5 1.5h-21C.675 24 0 23.325 0 22.5Z" fill="#2D327D"/><path d="m8.776 5.438 6.464-1.132A.694.694 0 1 0 15 2.939L8.537 4.071a.695.695 0 0 0 .239 1.367ZM2.999 7.516l18-3.153v-.685l-18 3.153v.685ZM20.25 11.25h-3.712L13.76 6.01l-1.049.183 2.68 5.057H8.646l2.488-4.781-1.302.228-2.37 4.553H3.75A.75.75 0 0 0 3 12v8.25c0 .414.336.75.75.75h16.5a.75.75 0 0 0 .75-.75V12a.75.75 0 0 0-.75-.75Zm-11.5 4.875a.375.375 0 0 1-.375.375h-4.25a.375.375 0 0 1-.375-.375v-3.75c0-.207.168-.375.375-.375h4.25c.207 0 .375.168.375.375v3.75Zm5.75 0a.375.375 0 0 1-.375.375h-4.25a.375.375 0 0 1-.375-.375v-3.75c0-.207.168-.375.375-.375h4.25c.207 0 .375.168.375.375v3.75Zm5.75 0a.375.375 0 0 1-.375.375h-4.25a.375.375 0 0 1-.375-.375v-3.75c0-.207.168-.375.375-.375h4.25c.207 0 .375.168.375.375v3.75Z" fill="#fff"/></g><defs><clipPath id="a"><path fill="#fff" d="M0 0h24v24H0z"/></clipPath></defs></svg>

<svg class="color-immutable" width="24" height="24" viewBox="0 0 24 24" fill="none" xmlns="http://www.w3.org/2000/svg"><path d="M0 22.5V1.5C0 0.675 0.675 0 1.5 0H22.5C23.325 0 24 0.675 24 1.5V22.5C24 23.325 23.325 24 22.5 24H1.5C0.675 24 0 23.325 0 22.5Z" fill="#2D327D"/><path d="M8.77598 5.438L15.24 4.306C15.572 4.248 15.814 3.959 15.814 3.623C15.814 3.24 15.503 2.929 15.12 2.929C15.08 2.929 15.04 2.933 15 2.939L8.53698 4.071C8.20498 4.13 7.96298 4.418 7.96298 4.755C7.96298 5.138 8.27398 5.449 8.65698 5.449C8.69698 5.449 8.73698 5.445 8.77598 5.438Z" fill="white"/><path d="M2.99899 7.51599L20.999 4.36299V3.67799L2.99899 6.83099V7.51599Z" fill="white"/><path d="M20.25 11.25H16.538L13.76 6.00999L12.711 6.19299L15.391 11.25H8.646L11.134 6.46899L9.832 6.69699L7.462 11.25H3.75C3.336 11.25 3 11.586 3 12V20.25C3 20.664 3.336 21 3.75 21H20.25C20.664 21 21 20.664 21 20.25V12C21 11.586 20.664 11.25 20.25 11.25ZM8.75 16.125C8.75 16.332 8.582 16.5 8.375 16.5H4.125C3.918 16.5 3.75 16.332 3.75 16.125V12.375C3.75 12.168 3.918 12 4.125 12H8.375C8.582 12 8.75 12.168 8.75 12.375V16.125ZM14.5 16.125C14.5 16.332 14.332 16.5 14.125 16.5H9.875C9.668 16.5 9.5 16.332 9.5 16.125V12.375C9.5 12.168 9.668 12 9.875 12H14.125C14.332 12 14.5 12.168 14.5 12.375V16.125ZM20.25 16.125C20.25 16.332 20.082 16.5 19.875 16.5H15.625C15.418 16.5 15.25 16.332 15.25 16.125V12.375C15.25 12.168 15.418 12 15.625 12H19.875C20.082 12 20.25 12.168 20.25 12.375V16.125Z" fill="white"/></svg>
